X:1
T:Tempo Change
L:1/8
M:2/4
Q:1/4=85
K:Amin
|:"Am" A2 EA | EA EA | c2 Ac | Ac Ac | e2 ce |"Dm" d2 Bd |1"Am" c2 Ac |"E7" B2 e2 :|
